X: 21311
M: 2/4
L: 1/16
K: D
V: 1 name="4"
fg |\
a2a2 a2f2 | d2d2 d2fd | A2A2 A2Bc | dcde fefg |\
a2a2 a2f2 | d2d2 d2fd | A2A2 A2Bc | d2f2d2 H|]
c6 Bc | d6 ef | g2e2 c2a2 | g6 fa |\
c'2c'2 d'c'bc' | d'2d'2 d'2a2 | g2ga f2fg | e6 Ac |
e2e2 e2c2 | A2A2 A2cA | E2E2 E2FG | A^GAB cBcd |\
e2e2 e2c2 | A2A2 A2cA | E2E2 E2cA | E2E2 E2FG | A2c2"^D.C."A2 |]
a4 f2d2 | A4 d2f2 | a2g2 e2c2 | A4 Aceg |\
f2da g2ea | f2da g2ea | gffe eddc |[d2F2][f2A2]"^D.C."d2 |]


